packages/blockchain-info-components/src/Images/img/banks/bank-logo-regions.svg

<svg fill="none" height="32" viewBox="0 0 32 32" width="32" xmlns="http://www.w3.org/2000/svg"><path clip-rule="evenodd" d="m19.1638 9.25079-3.1843 17.25621h-.0296l-3.1663-17.18556 3.2156-4.32144zm-6.7302.54058-4.08156 5.48803 6.34576 11.2128zm11.566 5.96133-.0904-.12-4.9245 10.8743h13.0153zm-15.99919 0-8.00041 10.7543h12.8739l-4.77983-10.8825zm15.58839-.5505-6.0188 11.3048h-.0723l2.0293-16.76656z" fill="#6ec72e" fill-rule="evenodd"/></svg>

<svg width="32" height="32" viewBox="0 0 32 32" fill="none" xmlns="http://www.w3.org/2000/svg">
<path fill-rule="evenodd" clip-rule="evenodd" d="M19.1638 9.25079L15.9795 26.507H15.9499L12.7836 9.32144L15.9992 5L19.1638 9.25079ZM12.4336 9.79137L8.35204 15.2794L14.6978 26.4922L12.4336 9.79137ZM23.9996 15.7527L23.9092 15.6327L18.9847 26.507H32L23.9996 15.7527ZM8.00041 15.7527L0 26.507H12.8739L8.09407 15.6245L8.00041 15.7527ZM23.5888 15.2022L17.57 26.507H17.4977L19.527 9.74044L23.5888 15.2022Z" fill="#6EC72E"/>
</svg>
